X:60
T: Lakes of Sligo
Z: B. Black
R: polka
M: 2/4
L: 1/8
K: D
FA AB/c/ | d>e dc | BA Bd | e>d ef |
FA AB/c/ | de f>e | dB Af | e2 d2 :|
fa de | fa ag/f/ | gb ef | gb ba/g/ |
fa ef | de f>e | dB Af | e2 d2 :|
